public/svg/fystack-logo.svg

<svg width="125" height="154" viewBox="0 0 125 154" fill="none" xmlns="http://www.w3.org/2000/svg">
<g style="mix-blend-mode:color-burn">
<path d="M125 38.6415C125 28.3931 120.884 18.5645 113.559 11.3178C106.233 4.07114 96.2975 0 85.9375 0H39.0625C28.7025 0 18.7668 4.07114 11.4411 11.3178C4.1155 18.5645 0 28.3931 0 38.6415L0 146.273C0.000326075 147.728 0.415395 149.152 1.19751 150.383C1.97962 151.615 3.09704 152.603 4.42136 153.234C5.74568 153.865 7.22316 154.114 8.68401 153.952C10.1449 153.79 11.5298 153.223 12.6797 152.317L41.4609 129.673C46.9903 125.321 53.8477 122.95 60.9141 122.949H85.9375C96.2975 122.949 106.233 118.878 113.559 111.632C120.884 104.385 125 94.5563 125 84.308V38.6415Z" fill="#3B82F6"/>
</g>
</svg>

<svg xmlns="http://www.w3.org/2000/svg" width="125" height="154" fill="none" viewBox="0 0 125 154"><path fill="#3b82f6" d="M125 38.642c0-10.249-4.116-20.078-11.441-27.324S96.298 0 85.938 0H39.063C28.703 0 18.767 4.071 11.44 11.318S0 28.393 0 38.642v107.631c0 1.455.415 2.879 1.198 4.11a7.8 7.8 0 0 0 3.223 2.851 7.9 7.9 0 0 0 4.263.718 7.86 7.86 0 0 0 3.996-1.635l28.78-22.644a31.47 31.47 0 0 1 19.454-6.724h25.024c10.36 0 20.295-4.071 27.621-11.317S125 94.556 125 84.308z" style="mix-blend-mode:color-burn"/></svg>
